swiss/communes/0195.svg

<?xml version="1.0" encoding="UTF-8" standalone="no"?>
<!-- Created with Inkscape (http://www.inkscape.org/) -->
<svg
   xmlns:svg="http://www.w3.org/2000/svg"
   xmlns="http://www.w3.org/2000/svg"
   version="1.0"
   width="238.76875"
   height="279.68045"
   id="svg2780">
  <defs
     id="defs2782" />
  <g
     transform="translate(-4.4781203,-791.67431)"
     id="layer1">
    <path
       d="M 5.4781202,792.67431 L 9.7830018,973.48945 C 12.85791,1102.6432 234.86708,1102.6432 237.942,973.48945 L 242.24688,792.67431 L 5.4781202,792.67431 z"
       id="path3282"
       style="fill:#000000;fill-opacity:1;fill-rule:evenodd;stroke:#000000;stroke-width:1.99999988;stroke-linecap:butt;stroke-miterlimit:4;stroke-dashoffset:0;stroke-opacity:1" />
    <path
       d="M 8.3125,108.03125 L 9.78125,169.15625 C 12.856158,298.31001 234.86258,298.31 237.9375,169.15625 L 239.40625,108.03125 L 204.5625,108.03125 L 204.55364,143.48208 L 176.86614,143.48208 L 176.875,108.03125 L 137.71875,108.03125 L 137.70989,143.48208 L 110.02239,143.48208 L 110.03125,108.03125 L 70.875,108.03125 L 70.866142,143.48208 L 43.178642,143.48208 L 43.1875,108.03125 L 8.3125,108.03125 z"
       transform="translate(0,804.33069)"
       id="path4608"
       style="fill:#ffffff;fill-opacity:1;fill-rule:evenodd;stroke:none;stroke-width:1px;stroke-linecap:butt;stroke-linejoin:miter;stroke-opacity:1" />
    <path
       d="M 8.463989,948.17897 L 238.5458,948.17137"
       id="path4602"
       style="fill:none;fill-opacity:0.75;fill-rule:evenodd;stroke:#000000;stroke-width:1px;stroke-linecap:butt;stroke-linejoin:miter;stroke-opacity:1" />
    <path
       d="M 10.579986,987.58938 L 237.09885,987.58938"
       id="path4604"
       style="fill:none;fill-opacity:0.75;fill-rule:evenodd;stroke:#000000;stroke-width:1px;stroke-linecap:butt;stroke-linejoin:miter;stroke-opacity:1" />
    <path
       d="M 26.626299,1026.9998 L 220.8762,1026.9998"
       id="path4606"
       style="fill:none;fill-opacity:0.75;fill-rule:evenodd;stroke:#000000;stroke-width:1px;stroke-linecap:butt;stroke-linejoin:miter;stroke-opacity:1" />
    <path
       d="M 25.052112,948.55672 L 25.052112,987.1048"
       id="path5139"
       style="fill:none;fill-opacity:0.75;fill-rule:evenodd;stroke:#000000;stroke-width:0.99999988px;stroke-linecap:butt;stroke-linejoin:miter;stroke-opacity:1" />
    <path
       d="M 91.896819,948.55672 L 91.896819,987.1048"
       id="path5141"
       style="fill:none;fill-opacity:0.75;fill-rule:evenodd;stroke:#000000;stroke-width:0.99999988px;stroke-linecap:butt;stroke-linejoin:miter;stroke-opacity:1" />
    <path
       d="M 158.74152,948.55672 L 158.74152,987.1048"
       id="path5143"
       style="fill:none;fill-opacity:0.75;fill-rule:evenodd;stroke:#000000;stroke-width:0.99999988px;stroke-linecap:butt;stroke-linejoin:miter;stroke-opacity:1" />
    <path
       d="M 225.58622,948.55672 L 225.58622,987.1048"
       id="path5145"
       style="fill:none;fill-opacity:0.75;fill-rule:evenodd;stroke:#000000;stroke-width:0.99999988px;stroke-linecap:butt;stroke-linejoin:miter;stroke-opacity:1" />
    <path
       d="M 58.474464,987.99295 L 58.474464,1026.6872"
       id="path5147"
       style="fill:none;fill-opacity:0.75;fill-rule:evenodd;stroke:#000000;stroke-width:0.99999994px;stroke-linecap:butt;stroke-linejoin:miter;stroke-opacity:1" />
    <path
       d="M 125.31916,987.99295 L 125.31916,1026.6872"
       id="path5149"
       style="fill:none;fill-opacity:0.75;fill-rule:evenodd;stroke:#000000;stroke-width:0.99999994px;stroke-linecap:butt;stroke-linejoin:miter;stroke-opacity:1" />
    <path
       d="M 192.16386,987.99295 L 192.16386,1026.6872"
       id="path5151"
       style="fill:none;fill-opacity:0.75;fill-rule:evenodd;stroke:#000000;stroke-width:0.99999994px;stroke-linecap:butt;stroke-linejoin:miter;stroke-opacity:1" />
    <path
       d="M 91.896815,1027.3688 L 91.940769,1066.8074"
       id="path5165"
       style="fill:none;fill-opacity:0.75;fill-rule:evenodd;stroke:#000000;stroke-width:1px;stroke-linecap:butt;stroke-linejoin:miter;stroke-opacity:1" />
    <path
       d="M 158.74151,1027.3688 L 158.69577,1066.1108"
       id="path5167"
       style="fill:none;fill-opacity:0.75;fill-rule:evenodd;stroke:#000000;stroke-width:1px;stroke-linecap:butt;stroke-linejoin:miter;stroke-opacity:1" />
  </g>
</svg>

<svg xmlns="http://www.w3.org/2000/svg" version="1.0" width="238.769" height="279.68"><path d="M5.478 792.674 9.783 973.49c3.075 129.154 225.084 129.154 228.159 0l4.305-180.815H5.478z" style="fill:#000;fill-opacity:1;fill-rule:evenodd;stroke:#000;stroke-width:1.99999988;stroke-linecap:butt;stroke-miterlimit:4;stroke-dashoffset:0;stroke-opacity:1" transform="translate(-4.478 -791.674)"/><path d="m8.313 108.031 1.468 61.125c3.075 129.154 225.082 129.154 228.156 0l1.47-61.125h-34.845l-.008 35.451h-27.688l.009-35.45h-39.156l-.01 35.45h-27.687l.01-35.45H70.874l-.009 35.45H43.18l.008-35.45H8.313z" transform="translate(-4.478 12.656)" style="fill:#fff;fill-opacity:1;fill-rule:evenodd;stroke:none;stroke-width:1px;stroke-linecap:butt;stroke-linejoin:miter;stroke-opacity:1"/><path d="m8.464 948.179 230.082-.008M10.58 987.59h226.519M26.626 1027h194.25" style="fill:none;fill-opacity:.75;fill-rule:evenodd;stroke:#000;stroke-width:1px;stroke-linecap:butt;stroke-linejoin:miter;stroke-opacity:1" transform="translate(-4.478 -791.674)"/><path d="M25.052 948.557v38.548M91.897 948.557v38.548M158.742 948.557v38.548M225.586 948.557v38.548" style="fill:none;fill-opacity:.75;fill-rule:evenodd;stroke:#000;stroke-width:.99999988px;stroke-linecap:butt;stroke-linejoin:miter;stroke-opacity:1" transform="translate(-4.478 -791.674)"/><path d="M58.474 987.993v38.694M125.32 987.993v38.694M192.164 987.993v38.694" style="fill:none;fill-opacity:.75;fill-rule:evenodd;stroke:#000;stroke-width:.99999994px;stroke-linecap:butt;stroke-linejoin:miter;stroke-opacity:1" transform="translate(-4.478 -791.674)"/><path d="m91.897 1027.369.044 39.438M158.742 1027.369l-.046 38.742" style="fill:none;fill-opacity:.75;fill-rule:evenodd;stroke:#000;stroke-width:1px;stroke-linecap:butt;stroke-linejoin:miter;stroke-opacity:1" transform="translate(-4.478 -791.674)"/></svg>
